svg/fluentui-system-icons/ic_fluent_location_arrow_up_16_regular.svg

<svg width="16" height="16" viewBox="0 0 16 16" fill="none" xmlns="http://www.w3.org/2000/svg">
<path d="M9.15886 14.5577C10.9028 13.0162 14 9.8739 14 7C14 3.68629 11.3137 1 8 1C4.68629 1 2 3.68629 2 7C2 9.8739 5.09724 13.0162 6.84114 14.5577C7.5095 15.1485 8.4905 15.1485 9.15886 14.5577ZM8 2C10.7614 2 13 4.23858 13 7C13 8.10846 12.3854 9.39535 11.4303 10.6827C10.4963 11.9415 9.34306 13.0602 8.49657 13.8085C8.20644 14.065 7.79356 14.065 7.50343 13.8085C6.65694 13.0602 5.50366 11.9415 4.56972 10.6827C3.61464 9.39535 3 8.10846 3 7C3 4.23858 5.23858 2 8 2ZM6.35355 6.85355C6.15829 7.04882 5.84171 7.04882 5.64645 6.85355C5.45118 6.65829 5.45118 6.34171 5.64645 6.14645L7.64645 4.14645C7.84171 3.95118 8.15829 3.95118 8.35355 4.14645L10.3536 6.14645C10.5488 6.34171 10.5488 6.65829 10.3536 6.85355C10.1583 7.04882 9.84171 7.04882 9.64645 6.85355L8.5 5.70711V9.5C8.5 9.77614 8.27614 10 8 10C7.72386 10 7.5 9.77614 7.5 9.5V5.70711L6.35355 6.85355Z" fill="#212121"/>
</svg>

<svg xmlns="http://www.w3.org/2000/svg" width="16" height="16"><path d="M9.159 14.558C10.903 13.016 14 9.874 14 7A6 6 0 0 0 2 7c0 2.874 3.097 6.016 4.841 7.558.668.59 1.65.59 2.318 0ZM8 2a5 5 0 0 1 5 5c0 1.108-.615 2.395-1.57 3.683-.934 1.258-2.087 2.377-2.933 3.126a.737.737 0 0 1-.994 0c-.846-.749-2-1.867-2.933-3.126C3.615 9.395 3 8.108 3 7a5 5 0 0 1 5-5ZM6.354 6.854a.5.5 0 1 1-.708-.708l2-2a.5.5 0 0 1 .708 0l2 2a.5.5 0 0 1-.708.708L8.5 5.707V9.5a.5.5 0 0 1-1 0V5.707L6.354 6.854Z"/></svg>
